resources/icons/scalingo.svg

<?xml version="1.0" encoding="UTF-8" standalone="no"?>
<svg
   xmlns:dc="http://purl.org/dc/elements/1.1/"
   xmlns:cc="http://creativecommons.org/ns#"
   xmlns:rdf="http://www.w3.org/1999/02/22-rdf-syntax-ns#"
   xmlns:svg="http://www.w3.org/2000/svg"
   xmlns="http://www.w3.org/2000/svg"
   xmlns:sodipodi="http://sodipodi.sourceforge.net/DTD/sodipodi-0.dtd"
   xmlns:inkscape="http://www.inkscape.org/namespaces/inkscape"
   version="1.1"
   width="16"
   height="16"
   viewBox="0 0 16 16"
   id="svg14"
   sodipodi:docname="scalingo.svg"
   inkscape:version="0.92.5 (2060ec1f9f, 2020-04-08)">
  <sodipodi:namedview
     pagecolor="#ffffff"
     bordercolor="#666666"
     borderopacity="1"
     objecttolerance="10"
     gridtolerance="10"
     guidetolerance="10"
     inkscape:pageopacity="0"
     inkscape:pageshadow="2"
     inkscape:window-width="1920"
     inkscape:window-height="1001"
     id="namedview16"
     showgrid="false"
     inkscape:zoom="20.85965"
     inkscape:cx="4.9755376"
     inkscape:cy="12.818101"
     inkscape:window-x="-9"
     inkscape:window-y="-9"
     inkscape:window-maximized="1"
     inkscape:current-layer="svg14" />
  <metadata
     id="metadata2">
    <rdf:RDF>
      <cc:Work
         rdf:about="">
        <dc:format>image/svg+xml</dc:format>
        <dc:type
           rdf:resource="http://purl.org/dc/dcmitype/StillImage" />
        <dc:title>scalingo-logo-icon-black</dc:title>
      </cc:Work>
    </rdf:RDF>
  </metadata>
  <defs
     id="defs6">
    <style
       id="style4">.a{fill:#212121;}.b{fill:#45afe4;}</style>
  </defs>
  <title
     id="title8">scalingo-logo-icon-black</title>
  <path
     class="a"
     d="M 5.6187686,9.6304955 10.218255,13.695377 14.842738,9.6579605 14.851038,7.6346743 10.226561,11.672091 5.6270751,7.6072089 Z M 1.1026071,10.381216 5.7270898,6.3437994 10.326576,10.408681 10.334882,8.3853962 5.7354222,4.3205132 1.1109395,8.3579301 Z"
     id="path10"
     inkscape:connector-curvature="0"
     style="fill:#212121;stroke-width:0.08734088" />
  <polygon
     class="b"
     transform="matrix(0.08332401,0,0,0.09155141,1.1026071,2.3613131)"
     points="166.1,22.1 166.2,0 110.7,44.1 110.7,66.2 "
     id="polygon12"
     style="fill:#45afe4" />
</svg>

<svg xmlns="http://www.w3.org/2000/svg" width="16" height="16" viewBox="0 0 16 16"><path d="M5.619 9.63l4.6 4.065 4.624-4.037.008-2.023-4.624 4.037-4.6-4.065zm-4.516.751l4.624-4.037 4.6 4.065.008-2.024-4.6-4.064-4.624 4.037z" fill="#212121" stroke-width=".087"/><path fill="#45afe4" d="M14.943 4.385l.008-2.024L10.327 6.4v2.023z"/></svg>
